local/share/icons/dracula-icons-main/scalable/mimetypes/text-x-tex.svg

<?xml version="1.0" encoding="UTF-8"?>
<svg xmlns="http://www.w3.org/2000/svg" xmlns:xlink="http://www.w3.org/1999/xlink" width="64" height="64" viewBox="0 0 64 64">
<defs>
<filter id="filter-remove-color" x="0%" y="0%" width="100%" height="100%">
<feColorMatrix color-interpolation-filters="sRGB" values="0 0 0 0 1 0 0 0 0 1 0 0 0 0 1 0 0 0 1 0" />
</filter>
<mask id="mask-0">
<g filter="url(#filter-remove-color)">
<rect x="-6.4" y="-6.4" width="76.8" height="76.8" fill="rgb(0%, 0%, 0%)" fill-opacity="0.1"/>
</g>
</mask>
<linearGradient id="linear-pattern-0" gradientUnits="userSpaceOnUse" x1="49.570999" y1="52.714001" x2="51.714001" y2="54.856998" gradientTransform="matrix(0.617345, 0, 0, 0.617345, -18.167916, -19.050025)">
<stop offset="0" stop-color="rgb(0%, 0%, 0%)" stop-opacity="1"/>
<stop offset="1" stop-color="rgb(0%, 0%, 0%)" stop-opacity="0"/>
</linearGradient>
<clipPath id="clip-0">
<rect x="0" y="0" width="17" height="17"/>
</clipPath>
<g id="source-7338" clip-path="url(#clip-0)">
<path fill-rule="evenodd" fill="url(#linear-pattern-0)" d="M 14.816406 12.171875 L 11.113281 15.875 L 13.492188 15.875 C 14.226562 15.875 14.816406 15.285156 14.816406 14.550781 Z M 14.816406 12.171875 "/>
</g>
</defs>
<path fill-rule="nonzero" fill="rgb(95.686275%, 95.686275%, 95.686275%)" fill-opacity="1" d="M 3.441406 1.058594 L 13.492188 1.058594 C 14.222656 1.058594 14.816406 1.652344 14.816406 2.382812 L 14.816406 14.550781 C 14.816406 15.28125 14.222656 15.875 13.492188 15.875 L 3.441406 15.875 C 2.707031 15.875 2.117188 15.28125 2.117188 14.550781 L 2.117188 2.382812 C 2.117188 1.652344 2.707031 1.058594 3.441406 1.058594 Z M 3.441406 1.058594 "/>
<g mask="url(#mask-0)">
<use xlink:href="#source-7338"/>
</g>
<path fill-rule="nonzero" fill="rgb(30.196078%, 30.196078%, 30.196078%)" fill-opacity="1" d="M 9.484375 6.085938 L 9.484375 6.242188 L 9.589844 6.242188 C 9.867188 6.242188 9.960938 6.277344 10.054688 6.417969 L 10.980469 7.820312 L 10.148438 9.03125 C 10.078125 9.132812 9.929688 9.363281 9.421875 9.363281 L 9.421875 9.519531 L 9.984375 9.5 C 10.167969 9.5 10.445312 9.503906 10.628906 9.519531 L 10.628906 9.363281 C 10.394531 9.359375 10.304688 9.214844 10.304688 9.125 C 10.304688 9.082031 10.320312 9.066406 10.355469 9.011719 L 11.074219 7.953125 L 11.863281 9.15625 C 11.871094 9.175781 11.894531 9.195312 11.894531 9.207031 C 11.894531 9.269531 11.777344 9.359375 11.5625 9.363281 L 11.5625 9.519531 C 11.738281 9.503906 12.105469 9.5 12.296875 9.5 L 12.953125 9.519531 L 12.953125 9.363281 L 12.859375 9.363281 C 12.597656 9.363281 12.484375 9.332031 12.378906 9.179688 L 11.324219 7.578125 L 12.007812 6.574219 C 12.117188 6.414062 12.296875 6.246094 12.742188 6.242188 L 12.742188 6.085938 L 12.183594 6.105469 C 11.984375 6.105469 11.742188 6.101562 11.539062 6.085938 L 11.539062 6.242188 C 11.742188 6.246094 11.851562 6.355469 11.851562 6.46875 C 11.851562 6.519531 11.84375 6.539062 11.808594 6.59375 L 11.230469 7.433594 L 10.585938 6.46875 C 10.574219 6.453125 10.554688 6.417969 10.554688 6.398438 C 10.554688 6.335938 10.660156 6.246094 10.875 6.242188 L 10.875 6.085938 C 10.699219 6.101562 10.332031 6.105469 10.140625 6.105469 Z M 4.074219 6.085938 L 3.980469 7.21875 L 4.105469 7.21875 C 4.175781 6.40625 4.25 6.242188 5.007812 6.242188 C 5.097656 6.242188 5.226562 6.242188 5.277344 6.25 C 5.382812 6.273438 5.394531 6.324219 5.394531 6.4375 L 5.394531 9.140625 C 5.394531 9.3125 5.390625 9.402344 4.863281 9.390625 L 4.65625 9.390625 L 4.65625 9.546875 C 4.863281 9.53125 5.378906 9.527344 5.609375 9.527344 C 5.839844 9.527344 6.359375 9.53125 6.566406 9.546875 L 6.566406 9.390625 L 6.359375 9.390625 C 5.832031 9.390625 5.839844 9.3125 5.839844 9.140625 L 5.839844 6.4375 C 5.839844 6.339844 5.832031 6.273438 5.921875 6.25 C 5.976562 6.242188 6.117188 6.242188 6.210938 6.242188 C 6.972656 6.242188 7.042969 6.40625 7.113281 7.21875 L 7.238281 7.21875 L 7.144531 6.085938 Z M 6.769531 7.410156 L 6.769531 7.5625 L 6.894531 7.5625 C 7.28125 7.5625 7.289062 7.613281 7.289062 7.792969 L 7.289062 10.453125 C 7.289062 10.632812 7.28125 10.691406 6.894531 10.691406 L 6.769531 10.691406 L 6.769531 10.847656 L 9.664062 10.847656 L 9.882812 9.550781 L 9.746094 9.550781 C 9.621094 10.324219 9.511719 10.691406 8.648438 10.691406 L 7.984375 10.691406 C 7.746094 10.691406 7.734375 10.648438 7.734375 10.484375 L 7.734375 9.132812 L 8.179688 9.132812 C 8.667969 9.132812 8.730469 9.296875 8.730469 9.722656 L 8.855469 9.722656 L 8.855469 8.386719 L 8.730469 8.386719 C 8.730469 8.816406 8.667969 8.976562 8.179688 8.976562 L 7.734375 8.976562 L 7.734375 7.761719 C 7.734375 7.59375 7.746094 7.5625 7.984375 7.5625 L 8.625 7.5625 C 9.394531 7.5625 9.53125 7.832031 9.613281 8.527344 L 9.738281 8.527344 L 9.589844 7.410156 Z M 6.769531 7.410156 "/>
</svg>

<svg width="64" height="64" version="1.1" viewBox="0 0 16.933 16.933" xmlns="http://www.w3.org/2000/svg">
 <defs>
  <linearGradient id="a" x1="49.571" x2="51.714" y1="52.714" y2="54.857" gradientTransform="matrix(2.3333,0,0,2.3333,-68.667,-72.001)" gradientUnits="userSpaceOnUse">
   <stop offset="0"/>
   <stop stop-opacity="0" offset="1"/>
  </linearGradient>
 </defs>
 <g transform="scale(.26458)">
  <rect x="8" y="4" width="48" height="56" ry="5" fill="#f4f4f4" style="paint-order:stroke fill markers"/>
  <path d="m56 46-14 14h9c2.77 0 5-2.23 5-5z" fill="url(#a)" fill-rule="evenodd" opacity=".1" stroke-width="8.8191" style="paint-order:stroke fill markers"/>
 </g>
 <path d="m9.4858 6.0859v0.15563h0.10376c0.27626 0 0.37147 0.03574 0.4669 0.17639l0.92343 1.4007-0.83005 1.2139c-0.07032 0.10046-0.21898 0.33202-0.72629 0.33202v0.15563l0.56028-0.02076c0.18585 0 0.46246 0.0057 0.64329 0.02076v-0.15563c-0.23106-5e-3 -0.32164-0.14823-0.32164-0.23864 0-0.0452 0.01672-0.05888 0.05188-0.11413l0.71592-1.0583 0.78854 1.2036c0.01005 0.02008 0.03113 0.03681 0.03113 0.05188 0 0.06027-0.11603 0.15061-0.33202 0.15563v0.15563c0.1758-0.01507 0.5458-0.02076 0.73667-0.02076l0.65366 0.02076v-0.15563h-0.09338c-0.26119 0-0.3718-0.03105-0.47728-0.18676l-1.0583-1.5978 0.68479-1.0064c0.1105-0.16073 0.28962-0.327 0.73667-0.33202v-0.15563l-0.56028 0.02075c-0.20092 0-0.44237-0.0057-0.64329-0.02075v0.15563c0.20092 5e-3 0.31127 0.11274 0.31127 0.22826 0 0.05023-0.0063 0.06925-0.0415 0.12451l-0.58104 0.84042-0.64329-0.96493c-0.01005-0.01507-0.03113-0.05254-0.03113-0.07263 0-0.06028 0.10566-0.15061 0.32164-0.15563v-0.15563c-0.1758 0.01507-0.5458 0.02075-0.73667 0.02075zm-5.4107 0-0.09338 1.1309h0.12451c0.07032-0.80869 0.14421-0.97531 0.90268-0.97531 0.09041 0 0.21954 3.25e-4 0.26977 0.01037 0.10548 0.02009 0.11413 0.07123 0.11413 0.18676v2.7037c0 0.17078-0.0018 0.25952-0.52916 0.24902h-0.20752v0.15563c0.20594-0.01507 0.7235-0.02076 0.95456-0.02076s0.74862 0.0057 0.95456 0.02076v-0.15563h-0.20751c-0.52741 0-0.51878-0.07824-0.51878-0.24902v-2.7037c0-0.10046-0.0074-0.16667 0.08301-0.18676 0.05525-0.01004 0.19508-0.01037 0.29052-0.01037 0.75846 0 0.83236 0.16662 0.90268 0.97531h0.12451l-0.09338-1.1309zm2.6944 1.3229v0.15563h0.12451c0.38676 0 0.39427 0.04744 0.39427 0.22826v2.6602c0 0.18082-0.0075 0.23864-0.39427 0.23864h-0.12451v0.15563h2.8948l0.21789-1.297h-0.13488c-0.12557 0.77353-0.23587 1.1413-1.0998 1.1413h-0.66404c-0.23608 0-0.24901-0.04176-0.24901-0.20751v-1.3509h0.44615c0.48722 0 0.54991 0.16446 0.54991 0.59141h0.12451v-1.3385h-0.12451c0 0.43197-0.06268 0.59141-0.54991 0.59141h-0.44615v-1.216c0-0.16576 0.01295-0.19714 0.24901-0.19714h0.64329c0.76851 0 0.90532 0.26674 0.98568 0.96493h0.12451l-0.14526-1.1206z" enable-background="new" fill="#4d4d4d"/>
</svg>
